icons/calendar-check.svg

<svg xmlns="http://www.w3.org/2000/svg" fill="none" viewBox="0 0 24 24">
  <path fill="#fff" d="M0 0h24v24H0z"/>
  <path stroke="#000" stroke-miterlimit="10" stroke-width="1.5" d="M4 17V9c0-2.2 1.8-4 4-4h8c2.2 0 4 1.8 4 4v8c0 2.2-1.8 4-4 4H8c-2.3 0-4-1.8-4-4Z"/>
  <path stroke="#000" stroke-linecap="round" stroke-miterlimit="10" stroke-width="1.5" d="M8 7V3m8 4V3M9 14l1.5 2c.1.1.3.1.4 0l4.1-4"/>
</svg>

<svg width="24" height="24" viewBox="0 0 24 24" fill="none" xmlns="http://www.w3.org/2000/svg">
<rect width="24" height="24" fill="white"/>
<path d="M4 17V9C4 6.8 5.8 5 8 5H16C18.2 5 20 6.8 20 9V17C20 19.2 18.2 21 16 21H8C5.7 21 4 19.2 4 17Z" stroke="black" stroke-width="1.5" stroke-miterlimit="10"/>
<path d="M8 7V3" stroke="black" stroke-width="1.5" stroke-miterlimit="10" stroke-linecap="round"/>
<path d="M16 7V3" stroke="black" stroke-width="1.5" stroke-miterlimit="10" stroke-linecap="round"/>
<path d="M9 14L10.5 16C10.6 16.1 10.8 16.1 10.9 16L15 12" stroke="black" stroke-width="1.5" stroke-miterlimit="10" stroke-linecap="round"/>
</svg>
